icons/vector-beizer-2.svg

<svg width="24" height="24" viewBox="0 0 24 24" fill="none" xmlns="http://www.w3.org/2000/svg">
<path d="M10 8.5C8.66974 8.72148 7.45289 9.38464 6.54574 10.3825C5.6386 11.3804 5.09407 12.6547 5 14" stroke="white" stroke-width="2" stroke-linecap="round" stroke-linejoin="round"/>
<path d="M14 8.5C15.3303 8.72148 16.5471 9.38464 17.4543 10.3825C18.3614 11.3804 18.9059 12.6547 19 14" stroke="white" stroke-width="2" stroke-linecap="round" stroke-linejoin="round"/>
<path d="M7 14H3V18H7V14Z" stroke="white" stroke-width="2" stroke-linecap="round" stroke-linejoin="round"/>
<path d="M21 14H17V18H21V14Z" stroke="white" stroke-width="2" stroke-linecap="round" stroke-linejoin="round"/>
<path d="M14 6H10V10H14V6Z" stroke="white" stroke-width="2" stroke-linecap="round" stroke-linejoin="round"/>
<path d="M3 9C3.55228 9 4 8.55228 4 8C4 7.44772 3.55228 7 3 7C2.44772 7 2 7.44772 2 8C2 8.55228 2.44772 9 3 9Z" stroke="white" stroke-width="2" stroke-linecap="round" stroke-linejoin="round"/>
<path d="M21 9C21.5523 9 22 8.55228 22 8C22 7.44772 21.5523 7 21 7C20.4477 7 20 7.44772 20 8C20 8.55228 20.4477 9 21 9Z" stroke="white" stroke-width="2" stroke-linecap="round" stroke-linejoin="round"/>
<path d="M10 8H4" stroke="white" stroke-width="2" stroke-linecap="round" stroke-linejoin="round"/>
<path d="M20 8H14" stroke="white" stroke-width="2" stroke-linecap="round" stroke-linejoin="round"/>
</svg>

<svg
  width="24"
  height="24"
  viewBox="0 0 24 24"
  xmlns="http://www.w3.org/2000/svg"
  fill="none"
  stroke="currentColor"
  stroke-width="2"
  stroke-linecap="round"
  stroke-linejoin="round"
>
  <path d="M10 8.5A6 6 0 0 0 5 14" />
  <path d="M14 8.5a6 6 0 0 1 5 5.5" />
  <path d="M7 14H3v4h4v-4z" />
  <path d="M21 14h-4v4h4v-4z" />
  <path d="M14 6h-4v4h4V6z" />
  <path d="M3 9a1 1 0 1 0 0-2 1 1 0 0 0 0 2z" />
  <path d="M21 9a1 1 0 1 0 0-2 1 1 0 0 0 0 2z" />
  <path d="M10 8H4" />
  <path d="M20 8h-6" />
</svg>
